assets/static/logos/xbuyer-team-inverse.svg

<svg xmlns="http://www.w3.org/2000/svg" width="551" height="368" fill="none"><g clip-path="url(#a)"><path fill="#fff" d="M535.21 213.52c-10.11-14.54-24.2-25.52-42.28-32.97-3.26-1.34-6.62-2.56-10.06-3.66 14.38-7.43 25.9-17.46 34.52-30.09 9.57-14.02 14.36-30.55 14.36-49.59 0-28.38-11.79-51.23-35.37-68.54C472.79 11.36 437.61 2.71 390.8 2.71h-21.12l-45.29 63.35h55.77c20.92 0 36.97 3.55 48.13 10.64 11.17 7.1 16.75 17.74 16.75 31.93 0 14.19-5.58 25.36-16.75 32.45-11.17 7.1-27.22 10.64-48.13 10.64H231.38L339.12 0h-75.76l-89.52 124.77-37.65-50.82H54.11l79.35 107.1L0 367.08h78.47l94.36-132.89 28.3 38.19h82.07L239.21 213h155.85c22.34 0 39.27 3.72 50.79 11.16 11.52 7.45 17.29 18.78 17.29 34.01 0 15.23-5.77 26.92-17.29 34.01-11.53 7.1-28.46 10.64-50.79 10.64H155.13l-45.29 63.35h291.6c48.93 0 85.98-8.74 111.16-26.22 25.17-17.48 37.76-41.8 37.76-72.95 0-21.11-5.05-38.94-15.16-53.48"/></g><defs><clipPath id="a"><path fill="#fff" d="M0 0h550.36v367.08H0z"/></clipPath></defs></svg>

<svg width="551" height="368" viewBox="0 0 551 368" fill="none" xmlns="http://www.w3.org/2000/svg">
<g clip-path="url(#clip0_486_26037)">
<path d="M535.21 213.52C525.1 198.98 511.01 188 492.93 180.55C489.67 179.21 486.31 177.99 482.87 176.89C497.25 169.46 508.77 159.43 517.39 146.8C526.96 132.78 531.75 116.25 531.75 97.21C531.75 68.83 519.96 45.98 496.38 28.67C472.79 11.36 437.61 2.71 390.8 2.71H369.68L324.39 66.06H380.16C401.08 66.06 417.13 69.61 428.29 76.7C439.46 83.8 445.04 94.44 445.04 108.63C445.04 122.82 439.46 133.99 428.29 141.08C417.12 148.18 401.07 151.72 380.16 151.72H231.38L339.12 0H263.36L173.84 124.77L136.19 73.95H54.11L133.46 181.05L0 367.08H78.47L172.83 234.19L201.13 272.38H283.2L239.21 213H395.06C417.4 213 434.33 216.72 445.85 224.16C457.37 231.61 463.14 242.94 463.14 258.17C463.14 273.4 457.37 285.09 445.85 292.18C434.32 299.28 417.39 302.82 395.06 302.82H155.13L109.84 366.17H401.44C450.37 366.17 487.42 357.43 512.6 339.95C537.77 322.47 550.36 298.15 550.36 267C550.36 245.89 545.31 228.06 535.2 213.52" fill="white"/>
</g>
<defs>
<clipPath id="clip0_486_26037">
<rect width="550.36" height="367.08" fill="white"/>
</clipPath>
</defs>
</svg>
